X:1
T:Bridegroom (Macfarren), CMD
T:Bridegroom (Macfarren), CMD
T:George Alexander Macfarren, 1872
T:Public Domain Courtesy of the Cyber Hymnal™
C:George Alexander Macfarren, 1872
Z:Public Domain
Z:Courtesy of the Cyber Hymnal™
%%score ( 1 2 ) ( 3 4 )
L:1/8
Q:1/4=110
M:4/4
K:C
V:1 treble 
V:2 treble 
V:3 bass 
V:4 bass 
V:1
 [EG]2 | [EG]3 [EG] [FA]2 [FA]2 | [Gc]3 [EG] [EG]2 [EG]2 | [FG]2 [FG]2 [FG]2 [FG]2 | [EG]6 (Gc) | %5
 [Ge]3 [Gc] G2 [Gc]2 | [Gd]3 [GB] G2 (GB) | [Gd]3 [DG] [DG]2 [D^F]2 | [DG]6 [DG]2 | %9
 [F_A]3 [FA] [F_B]2 [FA]2 | [F_A]3 [EG] [EG]2 ([FA][G_B]) | [_Ac]2 [_Ec]2 [Fd]3 [Fc] | %12
 ([GB]4 [FA]2) [FA]2 | [EG]2 [EG]2 [FA]2 [FA]2 | [Gc]3 [EG] [EG]2 [Ec]2 | [Gd]3 [FG] [FA]2 [FB]2 | %16
 [Ec]6 |] %17
V:2
 x2 | x8 | x8 | x8 | x6 G2 | x4 G2 x2 | x4 G2 G2 | x8 | x8 | x8 | x8 | x8 | x8 | x8 | x8 | x8 | %16
 x6 |] %17
V:3
 [C,C]2 | [C,C]3 [C,C] [F,C]2 [F,C]2 | [C,E]3 [C,C] [C,C]2 [C,C]2 | %3
 [B,,D]2 [G,,B,]2 [A,,C]2 [B,,D]2 | [C,G,]6 [C,E]2 | [CE]3 [C,E] [C,E]2 [CE]2 | %6
 [B,D]3 [G,D] [B,D]2 D2 | [D,B,]3 [D,B,] [D,C]2 [D,C]2 | [G,B,]6 [G,B,]2 | %9
 [F,C]3 [F,C] [D,_B,]2 [D,B,]2 | [_E,_B,]3 [E,_E] [E,E]2 [E,E]2 | [_A,_E]2 [A,C]2 [A,B,]3 [A,C] | %12
 (D4 B,2) [A,,B,]2 | [C,C]2 [C,C]2 [F,C]2 [F,C]2 | [C,E]3 [C,C] [C,C]2 [C,C]2 | %15
 [G,,B,]3 [G,B,] [G,C]2 [G,D]2 | [C,C]6 |] %17
V:4
 x2 | x8 | x8 | x8 | x8 | x8 | x6 (B,G,) | x8 | x8 | x8 | x8 | x8 | G,6 x2 | x8 | x8 | x8 | x6 |] %17

